X:237
T:The Plough Boy
C:No 237 William Clarke of Feltwell
M:4/4
L:1/8
N:Bars B 8,9,10 as m.s.
K:C
gf|e2g2c2e2|A4G2c2|B2d2f2e2|e4d2gf|e2g2c2e2|A4G2c2|B2d2f2B2|c6::e2|d2f2f2f2|f2e2z2e2|d2f2f2f2|f2e2z2e2|d2f2f2f2|f4e2g2|c2d2e2^f2|Hg4(a///g///^f///g///) (a///g///f///g///) (a///g///f///g///) (a///g///f///g///) c’/>a/f/ c’.a/f|Hc’2aq^gHg2^gg|=f2eg (f///e///)f///Hd///”tempo” gf|e2g2c2e2|A4G2c2|B2d2f2e2|e4d2gf|e2g2c2e2|A4G2c2|B2d2g2B2|c4z2gf|efge cdec|A4G2c2|Bcde fegf|e4d2gf|efge cdec|A4G2c2|Bcde gfed|c6:|

